X:1
T:Title
%%score { 1 | 2 }
L:1/8
M:3/2
K:Bb
V:1 treble nm="Grand Piano"
V:2 bass 
V:1
 z4 z4[Q:1/4=156] [B,DF]2 [B,FB]2 | [B,FA]4 .[B,EG]4 [B,EB]2 [B,EG]2 | [EG]4 [B,DF]4 [B,F]2 [Fd]2 | %3
 [=Ec]6 [EG]2 [_EA]2 [Ec]2 |[M:4/4] [DB]8 |[M:2/4] [B,F]2 [DFB]2 |[M:6/4] [C^FA]6 G2 B2 G2 | %7
 G4 F2- F2 F2 [Fd]2 | [Fc]6 [FA]2 [DA]2 [=EG]2 |[M:4/4] F8 |[M:2/4] F2 G2 | %11
[M:6/4] _A6 [FA]2 [FB]2 [DF]2 | _A4 G2- G2 G2 [^F=A]2 | [FB]6 [FB]2 [=Ec]2 [EG]2 |[M:4/4] B4 A4 | %15
[M:2/4] B2 [Gc]2 |[M:6/4] [^Fd]6 [A,FA]2 [DFB]2 [CFA]2 | [C^FA]4 [B,G]2- [B,G]2 [B,EB]2 [B,EG]2 | %18
 [B,DF]6 [DFB]2 [EGc]2 [CFA]2 |[M:4/4] [DFB]8 |] %20
V:2
 z4 z4 B,,2 D,2 | E,4 .E,4 G,2 E,2 | B,4 B,,4 D,2 [B,,B,]2 | [C,G,]6 [C,C]2 [F,C]2 [F,A,]2 | %4
[M:4/4] [B,,F,]8 |[M:2/4] D,2 B,,2 |[M:6/4] E,6 [E,B,]2 [G,B,E]2 [A,CE]2 | %7
 [A,CE]4 [B,D]2- [B,D]2 [B,D]2 [B,,B,]2 | [C,A,]6 [C,C]2 [C,B,]2 [C,B,]2 |[M:4/4] [F,A,]8 | %10
[M:2/4] [_A,C]2 [G,B,=E]2 |[M:6/4] [F,CF]6 [E,C]2 [D,B,]2 [B,,B,]2 | %12
 [E,B,D]4 [E,B,E]2- [E,B,E]2 [E,B,]2 [E,C]2 | [D,B,]6 [D,F,]2 [C,G,]2 [C,C]2 |[M:4/4] [F,CE]8 | %15
[M:2/4] [G,B,D]2 [E,G,]2 |[M:6/4] [D,A,]6 D,2 D,2 D,2 | E,4 E,2- E,2 G,2 E,2 | F,6 F,2 F,2 F,2 | %19
[M:4/4] B,,8 |] %20

